X:22
T:Saint Mary's
M:2/4
L:1/16
K:G Major
G2B2 A2BA|G2g2 efge|d2B2 A2GA|B2BA GFED|!
G2B2 A2BA|G2g2 efge|d2B2 A2GA|B2G2 G4:|!
B2d2 g3d|B2d2 g3d|B2d2 g3e|f4 f3g|!
abag efge|d2B2 A2GA|B2e2 dBAB|G4 G4:|!
